X: 1
T: Padraig O'Keefe's
M: 12/8
L: 1/8
R: slide
K: Gmaj
ded B2A G2D G2B|AGE A3 BAG B3|
ded B2A G2D G2B|AGE B2A G3 G3:|  
AGE A3 BAG B3|cBA c3 BAG B3|
ded B2A G2D G2B|AGE B2A G3 G3:|
